X:5074
T:Percussion (Fanch Marzelle)
O:england
C:R. Robert: Tablatures
M:3/4
L:1/4
K:C
A2A|E2E|c>dc|B3-|B3|A2c|G2A|G3|E3:|
e2e|dA>c|e3-|e3|e2e|dAc|c3|B3||
